X:1
T:It’s a Wonderful Life
T:It’s a Wonderful Life
T:Scott Werdebaugh
T:Scott Werdebaugh, 1991
T:© 1991 Scott Werdebaugh. Reproduce or publish freely for Christian worship or devotions. Courtesy of the Cyber Hymnal™
T:© 1991 Scott Werdebaugh. Reproduce or publish freely for Christian worship or devotions. Courtesy of the Cyber Hymnal™
T:© 1991 Scott Werdebaugh. Reproduce or publish freely for Christian worship or devotions. Courtesy of the Cyber Hymnal™
C:Scott Werdebaugh
Z:© 1991 Scott Werdebaugh. Reproduce or publish freely for Christian worship or devotions.
Z:Courtesy of the Cyber Hymnal™
%%score 1 ( 2 3 ) ( 4 5 )
L:1/8
Q:1/4=130
M:4/4
K:C
V:1 treble 
V:2 treble 
V:3 treble 
V:4 bass 
V:5 bass 
V:1
!mf!"^Lively" E2 E2 ED C2 | G2 G4 G2 | A2 A2 G2 F2 | G6 z2 | E2 E2 ED C2 | G2 G4 G2 | %6
w: 1.~God has prom- ised to|love us, He|sent His on- ly|Son;|Je- sus died to for-|give us, no|
w: 2.~There are so man- y|peo- ple who|need to know God’s|love;|Emp- ty, lone- ly, and|fear- ful, they|
w: 3.~Some- times we are so|hap- py, and|some- times we get|sad;|Some- times life seems so|eas- y, and|
w: 4.~Come what- ev- er may|come then, we|know God’s al- ways|there;|Day by day He is|with us; He’s|
 ^F2 F2 G2 A2 | G6 z G | E2 E2 (ED) C2 | G2 G4 G2 | c3 c B2 c2 | A6 z A | c2 c2 B2 A2 | A2 G4 E2 | %14
w: mat- ter what we’ve|done. He|wants to live * in-|side us, and|clean up ev- ’ry|part, When|we ask Him to|save us, and|
w: know not God a-|bove. What|joy is ours~to * be-|friend them, and|lead them to the|Lord, And|help them grow in|Je- sus, and|
w: some- times things go|bad. Yet|one thing nev- * er|chang- es when|we know Christ as|Lord; For|He’s our Friend and|Sav- iour, Who’s|
w: prom- ised us His|care. A-|bun- dant life~He * has|giv- en, and|hope and peace and|rest; And|when we get to|Heav- en, e-|
 G2 G2 F2 D2 | !fermata!C4 !fermata!G4 || E2 E2 ED C2 | G6 GG | A4 G2 F2 | G6 z2 | E2 E2 ED C2 | %21
w: live with- in our|heart! Oh,|it’s a won- der- ful|life when we|walk with the|Lord!|It’s a won- der- ful|
w: un- der- stand God’s|Word! Oh,|it’s a won- der- ful|life when we|walk with the|Lord!|It’s a won- der- ful|
w: faith- ful to His|Word! Oh,|it’s a won- der- ful|life when we|walk with the|Lord!|It’s a won- der- ful|
w: ter- nal life, His|best! Oh,|it’s a won- der- ful|life when we|walk with the|Lord!|It’s a won- der- ful|
 G6 GG | ^F4 G2 A2 | G6 z2 | E2 E2 ED C2 | G6 z2 | E3 E F2 G2 | A6 z A | A2 A2 G2 F2 | G4 E4 | %30
w: life when we|live by His|Word!|It’s a won- der- ful|life|prais- ing God a-|bove! For|when we walk with|Je- sus,|
w: life when we|live by His|Word!|It’s a won- der- ful|life|prais- ing God a-|bove! For|when we walk with|Je- sus,|
w: life when we|live by His|Word!|It’s a won- der- ful|life|prais- ing God a-|bove! For|when we walk with|Je- sus,|
w: life when we|live by His|Word!|It’s a won- der- ful|life|prais- ing God a-|bove! For|when we walk with|Je- sus,|
 G2 G2 FE D2 |1,2,3 C8 :|4[Q:1/4=135]"^Rit."[Q:1/4=135]"^Rit."[Q:1/4=135]"^Rit." G2 G2 FE D2 || %33
w: it’s a won- der- ful|life!||
w: it’s a won- der- ful|life!||
w: it’s a won- der- ful|life!||
w: it’s a won- der- ful,|~|It’s a won- der- ful,|
 G3 G GA B2 |[Q:1/4=120][Q:1/4=120][Q:1/4=120] c8 |] %35
w: ||
w: ||
w: ||
w: It’s a won- der- ful|life!|
V:2
 [CE]2 [CE]2 [CE][B,D] C2 | [EG]2 [EG]4 [EG]2 | [FA]2 [FA]2 [DG]2 [DF]2 | [EG]8 | %4
 [CE]2 [CE]2 [CE][B,D] C2 | [EG]2 [EG]4 [EG]2 | [D^F]2 [DF]2 [DG]2 [FA]2 | [DG]6- [DG][DG] | %8
 [CE]2 [CE]2 ([CE][B,D]) C2 | [EG]2 [EG]4 [EG]2 | [Ec]3 [Fc] [GB]2 [Ec]2 | [FA]6- [FA][FA] | %12
 [Ac]2 [Ac]2 [GB]2 [FA]2 | A2 [EG]4 [CE]2 | [DG]2 [DG]2 [DF]2 [B,D]2 | %15
 !fermata!C4 !fermata![B,G]4 || [CE]2 [CE]2 [CE][B,D] C2 | [EG]6 [EG][EG] | [FA]4 [DG]2 [DF]2 | %19
 [EG]8 | [CE]2 [CE]2 [CE][B,D] C2 | [EG]6 [EG][EG] | [D^F]4 [DG]2 [DA]2 | [DG]8 | %24
 [CE]2 [CE]2 [CE][B,D] C2 | [EG]8 | [CE]3 [CE] [DF]2 [EG]2 | [FA]6- [FA][FA] | %28
 [FA]2 [FA]2 [DG]2 [DF]2 | [EG]4 [CE]4 | [DG]2 [DG]2 [DF][CE] [B,D]2 |1,2,3 [G,C]8 :|4 %32
 [DG]2 [DG]2 [DF][CE] [B,D]2 || [DG]3 [DG] [DG][FA] [FB]2 | [EGc]8 |] %35
V:3
 x6 C2 | x8 | x8 | x8 | x6 C2 | x8 | x8 | x8 | x6 C2 | x8 | x8 | x8 | x8 | (CD) x6 | x8 | C4 x4 || %16
 x6 C2 | x8 | x8 | x8 | x6 C2 | x8 | x8 | x8 | x6 C2 | x8 | x8 | x8 | x8 | x8 | x8 |1,2,3 x8 :|4 %32
 x8 || x8 | x8 |] %35
V:4
 [C,G,]4 [C,G,][D,G,] [E,G,]2 | [C,G,]2 [C,G,]4 [E,C]2 | [F,C]4 [G,B,]4 | [C,G,]8 | %4
 [C,G,]4 [C,G,][D,G,] [E,G,]2 | [C,G,]2 [C,G,]4 [E,C]2 | [D,A,]4 [G,B,]2 [D,A,]2 | %7
 B,6- [D,B,][D,B,] | [C,G,]4 ([C,G,][D,G,]) [E,G,]2 | [C,G,]2 [C,G,]4 [E,C]2 | %10
 [G,C]3 [F,A,] [D,G,]2 [C,G,]2 | [C,F,]6- [C,F,][C,F,] | [F,A,]4 [D,G,]2 [F,C]2 | %13
 [F,A,]2 [C,C]4 [C,G,]2 | [G,B,]4 [G,B,]2 [F,B,]2 | !fermata![E,G,]4 !fermata![D,G,]4 || %16
 [C,G,]4 [C,G,][D,G,] [E,G,]2 | [C,G,]6 [C,G,]2 | [C,F,]4 [B,,G,]4 | [C,G,]8 | %20
 [C,G,]4 [C,G,][D,G,] [E,G,]2 | [C,G,]6 [C,E,][E,G,] | [D,A,]4 [G,B,]2 [^F,A,]2 | B,6- [D,B,]2 | %24
 [C,G,]4 [C,G,][D,G,] [E,G,]2 | [C,G,]8 | [C,G,]4 [D,G,]2 [E,C]2 | [F,C]6- [F,C][F,C] | %28
 [F,C]4 [G,B,]4 | C4 [C,G,]4 | [G,B,]2 [D,B,]2 [D,G,][C,G,] [G,,G,]2 |1,2,3 [C,E,]8 :|4 %32
 [B,,G,]4 [D,G,][C,G,] [G,,G,]2 || [B,,G,]4 [D,G,][C,G,] [G,,G,]2 | [C,E,G,C]8 |] %35
V:5
 x8 | x8 | x8 | x8 | x8 | x8 | x8 | G,2 F,2 E,2 x2 | x8 | x8 | x8 | x8 | x8 | x8 | x8 | x8 || x8 | %17
 x8 | x8 | x8 | x8 | x8 | x8 | G,2 F,2 E,2 x2 | x8 | x8 | x8 | x8 | x8 | E,2 D,2 x4 | x8 |1,2,3 %31
 x8 :|4 x8 || x8 | x8 |] %35

